X:0683
M:2/4
L:1/8
Q:1/4=104
K:G
de/d/ de/d/|de/d/    db|c'a``````gf      |g2       g2     :|
dd````cB   |dd```````cB|ee```````dc      |ee```````dc      |\
dd````cB   |dd```````cB|cA```````GF      |G2       G2     :|
cf/g/ c'c' |Gf/a/    bb|a/b/a/g/ f/g/f/e/|d/e/d/c/ B/c/B/A/|
dd````cB   |dd```````cB|ee```````dc      |ee```````dc      |\
dd````cB   |dd```````cB|cA`` ````GF      |G2       G2     |]

